dist/img/icons/g-pay.svg

<svg width="41" height="18" viewBox="0 0 41 18" fill="none" xmlns="http://www.w3.org/2000/svg">
<path d="M18.3457 8.56931V13.4845H16.7871V1.34618H20.9223C21.92 1.32573 22.884 1.70405 23.5998 2.39642C24.3243 3.04935 24.7333 3.98273 24.7187 4.95847C24.7391 5.9386 24.3316 6.88074 23.5998 7.53513C22.8767 8.22458 21.9843 8.56931 20.9223 8.56785L18.3457 8.56931ZM18.3457 2.84047V7.07794H20.9603C21.5402 7.09547 22.0997 6.8676 22.5028 6.44984C23.3223 5.65376 23.3398 4.34352 22.5437 3.52407C22.5306 3.50947 22.5159 3.49632 22.5028 3.48317C22.104 3.05665 21.5431 2.82294 20.9603 2.83901L18.3457 2.84047Z" fill="#0B002E"/>
<path d="M28.3182 4.9032C29.4707 4.9032 30.3807 5.21141 31.0468 5.82782C31.7128 6.44424 32.0473 7.28852 32.0459 8.36066V13.4789H30.5545V12.3264H30.4873C29.8417 13.2759 28.9828 13.7506 27.9106 13.7506C26.9963 13.7506 26.2309 13.4789 25.6144 12.937C25.0156 12.4331 24.6767 11.6852 24.6898 10.9037C24.6898 10.0448 25.0141 9.36124 25.6641 8.85292C26.3141 8.34606 27.1803 8.09044 28.2656 8.09044C29.1917 8.09044 29.9542 8.25988 30.553 8.59876V8.24235C30.556 7.7092 30.3208 7.20233 29.9089 6.86199C29.497 6.48951 28.9594 6.28648 28.4044 6.29378C27.5338 6.29378 26.8443 6.66188 26.336 7.39661L24.963 6.53188C25.7196 5.44658 26.837 4.9032 28.3182 4.9032ZM26.301 10.9373C26.2995 11.3405 26.4909 11.7188 26.818 11.954C27.1628 12.2257 27.5908 12.3688 28.029 12.36C28.6863 12.3586 29.3173 12.0971 29.7833 11.6312C30.3003 11.1447 30.5574 10.5751 30.5574 9.91922C30.071 9.53214 29.3933 9.33787 28.5241 9.33787C27.8902 9.33787 27.3629 9.49124 26.9393 9.79653C26.5128 10.1077 26.301 10.4845 26.301 10.9373Z" fill="#0B002E"/>
<path d="M40.6048 5.17688L35.3989 17.1429H33.7892L35.7217 12.9565L32.2979 5.17834H33.9923L36.4667 11.1438H36.5003L38.9075 5.17834H40.6048V5.17688Z" fill="#0B002E"/>
<path d="M13.7132 7.4289C13.7132 6.96368 13.6745 6.49846 13.5958 6.03896H7.15137V8.67141H10.8417C10.6885 9.52026 10.1961 10.2703 9.47748 10.7484L11.6805 12.4562C12.9702 11.2666 13.7132 9.50881 13.7132 7.4289Z" fill="#0B002E"/>
<path d="M7.153 14.0876C8.99671 14.0876 10.5498 13.4821 11.6821 12.4386L9.47911 10.7309C8.86645 11.146 8.07629 11.3836 7.153 11.3836C5.37084 11.3836 3.8578 10.1826 3.31671 8.56364L1.04785 10.3243C2.20733 12.6304 4.57066 14.0876 7.153 14.0876Z" fill="#0B002E"/>
<path d="M3.31608 8.57444C3.02979 7.72558 3.02979 6.80659 3.31608 5.95917V4.19848H1.04723C0.0767046 6.12951 0.0767046 8.40409 1.04723 10.3351L3.31608 8.57444Z" fill="#0B002E"/>
<path d="M7.15443 3.13305C8.12925 3.1173 9.07115 3.48518 9.77542 4.15797L11.7251 2.20833C10.4883 1.04742 8.84927 0.408989 7.153 0.42903C4.56923 0.42903 2.20733 1.88625 1.04785 4.19375L3.31671 5.95444C3.85923 4.33547 5.37227 3.13305 7.15443 3.13305Z" fill="#0B002E"/>
</svg>

<svg width="41" height="18" viewBox="0 0 41 18" fill="none" xmlns="http://www.w3.org/2000/svg"><path d="M18.346 8.57v4.915h-1.559V1.346h4.135a3.74 3.74 0 012.678 1.05 3.382 3.382 0 011.119 2.562c.02.98-.387 1.923-1.12 2.577-.722.69-1.615 1.034-2.677 1.033l-2.576.001zm0-5.73v4.238h2.614c.58.017 1.14-.21 1.543-.628a2.07 2.07 0 00.04-2.926c-.012-.015-.027-.028-.04-.04a2.033 2.033 0 00-1.543-.645l-2.614.001zm9.972 2.063c1.153 0 2.063.308 2.729.925.666.616 1 1.46.999 2.533v5.118h-1.491v-1.153h-.068c-.645.95-1.504 1.425-2.576 1.425-.915 0-1.68-.272-2.297-.814a2.601 2.601 0 01-.924-2.033c0-.86.324-1.543.974-2.051.65-.507 1.516-.763 2.602-.763.926 0 1.688.17 2.287.509v-.357a1.776 1.776 0 00-.644-1.38 2.2 2.2 0 00-1.505-.568c-.87 0-1.56.368-2.068 1.103l-1.373-.865c.757-1.085 1.874-1.629 3.355-1.629zm-2.017 6.034c-.002.404.19.782.517 1.017.345.272.773.415 1.211.406a2.489 2.489 0 001.754-.729c.517-.486.774-1.056.774-1.712-.486-.387-1.164-.581-2.033-.581-.634 0-1.161.153-1.585.459-.426.31-.638.688-.638 1.14zm14.304-5.76l-5.206 11.966h-1.61l1.933-4.187-3.424-7.778h1.694l2.475 5.966h.033l2.407-5.966h1.698v-.001zM13.713 7.429c0-.465-.038-.93-.117-1.39H7.15v2.632h3.69a3.171 3.171 0 01-1.364 2.077l2.204 1.708c1.29-1.19 2.032-2.947 2.032-5.027z" fill="#0B002E"/><path d="M7.153 14.088c1.844 0 3.397-.606 4.53-1.65l-2.204-1.707c-.613.415-1.403.653-2.326.653-1.782 0-3.295-1.201-3.836-2.82l-2.27 1.76a6.835 6.835 0 006.106 3.764z" fill="#0B002E"/><path d="M3.316 8.574a4.09 4.09 0 010-2.615V4.2H1.047a6.83 6.83 0 000 6.136l2.27-1.76z" fill="#0B002E"/><path d="M7.154 3.133a3.707 3.707 0 012.621 1.025l1.95-1.95A6.57 6.57 0 007.153.43a6.832 6.832 0 00-6.105 3.765l2.269 1.76c.542-1.619 2.055-2.821 3.837-2.821z" fill="#0B002E"/></svg>
